X:6
T:Pavan \340 5: 'Lachrimae'
%%measurenb 0
%%scale 0.7
%%squarebreve
%%footer "$T	Page $P	Gumbleton Music, 2009\n"
%%MIDI program 1 43
%%MIDI program 2 44
%%MIDI program 3 44
%%MIDI program 4 44
%%MIDI program 5 44
C:Thomas Weelkes
P:Bass
M:C|
L:1/4
K:F clef=bass middle=d
G4 c>c B G | d d f3 _e d2 | c2 d3 d g2-|
g f _e2 d2 c2 | d3 d G4 :: B4 B3 _e |
B>A G G c4 | d3 d _e2 f2- | f f g4 c2 | d4 d4 ::
d3 c B2 A2-| A A d>d B c d2-|d2 G2 G3 c |
G G d2 _e2 f2-| f _e d3 d =B c | d4 HG4 :|]
